X: 16113
T: Green Gates, The
R: reel
M: 4/4
K: Gmajor
|:GBdg egdB|GBdg egdB|eA A2 eA A2|(3Bcd ef gedB|
GBdg egdB|GBdg egdB|cdef gedc|BGAF G4:|
|:dg g2 bg g2|dgfg e2 dB|eA A2 eA A2|(3Bcd ef gedB|
dg g2 bg g2|dgfg e2 dB|cdef gedc|BGAF G4:|

